assets/icons/qvision/forward_5.svg

<svg xmlns="http://www.w3.org/2000/svg" enable-background="new 0 0 24 24" height="24" viewBox="0 0 24 24" width="24"><g><rect fill="none" height="24" width="24"/></g><g><g><path d="M18,13c0,3.31-2.69,6-6,6s-6-2.69-6-6s2.69-6,6-6v4l5-5l-5-5v4c-4.42,0-8,3.58-8,8c0,4.42,3.58,8,8,8c4.42,0,8-3.58,8-8 H18z"/><path d="M12.03,15.38c-0.44,0-0.58-0.31-0.6-0.56h-0.84c0.03,0.85,0.79,1.25,1.44,1.25c0.93,0,1.44-0.63,1.44-1.43 c0-1.33-0.97-1.44-1.3-1.44c-0.2,0-0.43,0.05-0.64,0.16l0.11-0.92h1.7v-0.71h-2.39l-0.25,2.17l0.67,0.17 c0.13-0.13,0.28-0.23,0.57-0.23c0.4,0,0.69,0.23,0.69,0.75C12.62,14.64,12.65,15.38,12.03,15.38z"/></g></g></svg>

<svg width="24" height="24" viewBox="0 0 24 24" fill="none" xmlns="http://www.w3.org/2000/svg">
<g clip-path="url(#clip0_147_1466)">
<path d="M18 13C18 16.31 15.31 19 12 19C8.69 19 6 16.31 6 13C6 9.69 8.69 7 12 7V11L17 6L12 1V5C7.58 5 4 8.58 4 13C4 17.42 7.58 21 12 21C16.42 21 20 17.42 20 13H18Z" fill="#323232"/>
<path d="M12.03 15.38C11.59 15.38 11.45 15.07 11.43 14.82H10.59C10.62 15.67 11.38 16.07 12.03 16.07C12.96 16.07 13.47 15.44 13.47 14.64C13.47 13.31 12.5 13.2 12.17 13.2C11.97 13.2 11.74 13.25 11.53 13.36L11.64 12.44H13.34V11.73H10.95L10.7 13.9L11.37 14.07C11.5 13.94 11.65 13.84 11.94 13.84C12.34 13.84 12.63 14.07 12.63 14.59C12.62 14.64 12.65 15.38 12.03 15.38Z" fill="#323232"/>
</g>
<defs>
<clipPath id="clip0_147_1466">
<rect width="24" height="24" fill="white"/>
</clipPath>
</defs>
</svg>
